img/delet_b.svg

<svg width="16" height="16" viewBox="0 0 16 16" fill="none" xmlns="http://www.w3.org/2000/svg">
<path fill-rule="evenodd" clip-rule="evenodd" d="M8.16432 14.6666C7.26098 14.6666 6.38032 14.6566 5.50898 14.6386C4.39432 14.6166 3.62298 13.8939 3.49698 12.7526C3.28698 10.8593 2.92765 6.3966 2.92432 6.35194C2.90165 6.0766 3.10698 5.83527 3.38232 5.81327C3.65365 5.80594 3.89898 5.9966 3.92098 6.27127C3.92432 6.3166 4.28298 10.7639 4.49098 12.6426C4.56232 13.2913 4.91232 13.6259 5.52965 13.6386C7.19632 13.6739 8.89698 13.6759 10.7303 13.6426C11.3863 13.6299 11.741 13.3019 11.8143 12.6379C12.021 10.7753 12.381 6.3166 12.385 6.27127C12.407 5.9966 12.6503 5.8046 12.923 5.81327C13.1983 5.83594 13.4036 6.0766 13.3816 6.35194C13.3776 6.39727 13.0163 10.8713 12.8083 12.7479C12.679 13.9126 11.9096 14.6213 10.7483 14.6426C9.85965 14.6579 9.00232 14.6666 8.16432 14.6666Z" fill="#111D37"/>
<path fill-rule="evenodd" clip-rule="evenodd" d="M13.8053 4.65955H2.5C2.224 4.65955 2 4.43555 2 4.15955C2 3.88355 2.224 3.65955 2.5 3.65955H13.8053C14.0813 3.65955 14.3053 3.88355 14.3053 4.15955C14.3053 4.43555 14.0813 4.65955 13.8053 4.65955Z" fill="#111D37"/>
<path fill-rule="evenodd" clip-rule="evenodd" d="M11.6269 4.6595C10.8682 4.6595 10.2096 4.11883 10.0602 3.37483L9.89822 2.56416C9.86422 2.44083 9.72356 2.3335 9.56356 2.3335H6.74156C6.58156 2.3335 6.44089 2.44083 6.40022 2.59483L6.24489 3.37483C6.09622 4.11883 5.43689 4.6595 4.67822 4.6595C4.40222 4.6595 4.17822 4.4355 4.17822 4.1595C4.17822 3.8835 4.40222 3.6595 4.67822 3.6595C4.96222 3.6595 5.20889 3.45683 5.26489 3.17816L5.42689 2.3675C5.59156 1.74616 6.12956 1.3335 6.74156 1.3335H9.56356C10.1756 1.3335 10.7136 1.74616 10.8716 2.3375L11.0409 3.17816C11.0962 3.45683 11.3429 3.6595 11.6269 3.6595C11.9029 3.6595 12.1269 3.8835 12.1269 4.1595C12.1269 4.4355 11.9029 4.6595 11.6269 4.6595Z" fill="#111D37"/>
</svg>

<svg width="16" height="16" viewBox="0 0 16 16" fill="none" xmlns="http://www.w3.org/2000/svg"><path fill-rule="evenodd" clip-rule="evenodd" d="M8.164 14.667c-.903 0-1.784-.01-2.655-.028-1.115-.022-1.886-.745-2.012-1.886-.21-1.894-.57-6.356-.573-6.401a.5.5 0 0 1 .458-.539c.272-.007.517.184.539.458.003.046.362 4.493.57 6.372.071.648.421.983 1.039.996 1.666.035 3.367.037 5.2.004.656-.013 1.011-.341 1.084-1.005.207-1.863.567-6.321.571-6.367a.51.51 0 0 1 .538-.458.5.5 0 0 1 .459.539c-.004.045-.366 4.52-.574 6.396-.129 1.165-.898 1.873-2.06 1.895-.888.015-1.746.024-2.584.024zM13.805 4.66H2.5a.5.5 0 0 1 0-1h11.305a.5.5 0 0 1 0 1z" fill="#111D37"/><path fill-rule="evenodd" clip-rule="evenodd" d="M11.627 4.66a1.604 1.604 0 0 1-1.567-1.285l-.162-.81c-.034-.124-.174-.232-.334-.232H6.742a.354.354 0 0 0-.342.262l-.155.78A1.603 1.603 0 0 1 4.678 4.66a.5.5 0 0 1 0-1 .6.6 0 0 0 .587-.482l.162-.81a1.362 1.362 0 0 1 1.315-1.034h2.822c.612 0 1.15.412 1.308 1.003l.169.841a.6.6 0 0 0 .586.482.5.5 0 0 1 0 1z" fill="#111D37"/></svg>
